outputs/icons/action/ar_round.svg

<svg xmlns="http://www.w3.org/2000/svg" width="1200" height="1200" fill="none"><g fill="#000" clip-path="url(#a)"><path d="M100 300c27.5 0 50-22.5 50-50v-50c0-27.5 22.5-50 50-50h50c27.5 0 50-22.5 50-50s-22.5-50-50-50h-50c-83 0-150 67-150 150v50c0 27.5 22.5 50 50 50M250 1050h-50c-27.5 0-50-22.5-50-50v-50c0-27.5-22.5-50-50-50s-50 22.5-50 50v50c0 83 67 150 150 150h50c27.5 0 50-22.5 50-50s-22.5-50-50-50M950 50h50c83 0 150 67 150 150v50c0 27.5-22.5 50-50 50s-50-22.5-50-50v-50c0-27.5-22.5-50-50-50h-50c-27.5 0-50-22.5-50-50s22.5-50 50-50M1100 900c-27.5 0-50 22.5-50 50v50c0 27.5-22.5 50-50 50h-50c-27.5 0-50 22.5-50 50s22.5 50 50 50h50c83 0 150-67 150-150v-50c0-27.5-22.5-50-50-50"/><path fill-rule="evenodd" d="M950 456.5v287c0 36-19 69-50 86.5L650 974c-15.5 9-32.5 13.5-50 13.5s-34.5-4.5-50-13.5L300 830c-31-17.5-50-50.5-50-86.5v-287c0-36 19-69 50-87L550 226c15.5-9 32.5-13.5 50-13.5s34.5 4.5 50 13.5l250 144c31 17.5 50 50.5 50 86.5m-600 287 200 115v-230L350 512zm52-317L600 542l198-115.5-198-114zm248 432 200-115V512L650 628.5z"/></g><defs><clipPath id="a"><path fill="#fff" d="M0 0h1200v1200H0z"/></clipPath></defs></svg>

<svg width="1200" height="1200" viewBox="0 0 1200 1200" fill="none" xmlns="http://www.w3.org/2000/svg"><g clip-path="url(#clip0_223_1901)"><path d="M100 300C127.5 300 150 277.5 150 250V200C150 172.5 172.5 150 200 150H250C277.5 150 300 127.5 300 100C300 72.5 277.5 50 250 50H200C117 50 50 117 50 200V250C50 277.5 72.5 300 100 300Z" fill="black"/><path d="M250 1050H200C172.5 1050 150 1027.5 150 1000V950C150 922.5 127.5 900 100 900C72.5 900 50 922.5 50 950V1000C50 1083 117 1150 200 1150H250C277.5 1150 300 1127.5 300 1100C300 1072.5 277.5 1050 250 1050Z" fill="black"/><path d="M950 50H1000C1083 50 1150 117 1150 200V250C1150 277.5 1127.5 300 1100 300C1072.5 300 1050 277.5 1050 250V200C1050 172.5 1027.5 150 1000 150H950C922.5 150 900 127.5 900 100C900 72.5 922.5 50 950 50Z" fill="black"/><path d="M1100 900C1072.5 900 1050 922.5 1050 950V1000C1050 1027.5 1027.5 1050 1000 1050H950C922.5 1050 900 1072.5 900 1100C900 1127.5 922.5 1150 950 1150H1000C1083 1150 1150 1083 1150 1000V950C1150 922.5 1127.5 900 1100 900Z" fill="black"/><path fill-rule="evenodd" d="M950 456.5V743.5C950 779.5 931 812.5 900 830L650 974C634.5 983 617.5 987.5 600 987.5C582.5 987.5 565.5 983 550 974L300 830C269 812.5 250 779.5 250 743.5V456.5C250 420.5 269 387.5 300 369.5L550 226C565.5 217 582.5 212.5 600 212.5C617.5 212.5 634.5 217 650 226L900 370C931 387.5 950 420.5 950 456.5ZM350 743.5L550 858.5V628.5L350 512V743.5ZM402 426.5L600 542L798 426.5L600 312.5L402 426.5ZM650 858.5L850 743.5V512L650 628.5V858.5Z" fill="black"/></g><defs><clipPath id="clip0_223_1901"><path width="24" fill="white" d="M0 0H1200V1200H0V0z"/></clipPath></defs></svg>
